Sources/FrostedUI/Resources/Icons.xcassets/volumeLow16.imageset/volume-low-16.svg

<svg width="16" height="16" viewBox="0 0 16 16" fill="none" xmlns="http://www.w3.org/2000/svg" data-fui-icon="true">
  <path
    d="M6.84961 2.2262C7.72405 1.57568 8.99969 2.19389 9 3.31409V12.6852C9 13.842 7.63984 14.4633 6.76562 13.7057L4.57227 11.8053C4.34504 11.6085 4.05453 11.4996 3.75391 11.4996H2.75C1.7835 11.4996 1 10.7161 1 9.74963V6.24963C1.00022 5.28332 1.78364 4.49963 2.75 4.49963H3.75391C4.05462 4.49963 4.34501 4.3909 4.57227 4.19397L6.76562 2.29358L6.84961 2.2262ZM5.55469 5.32776C5.05473 5.76099 4.41546 5.99963 3.75391 5.99963H2.75C2.61206 5.99963 2.50022 6.11175 2.5 6.24963V9.74963C2.5 9.8877 2.61193 9.99963 2.75 9.99963H3.75391C4.41537 9.99963 5.05476 10.2384 5.55469 10.6715L7.5 12.3561V3.64221L5.55469 5.32776ZM10.4414 5.49963C10.7176 5.19134 11.1914 5.16516 11.5 5.44104L11.0391 5.95569C11.4904 5.45128 11.5005 5.44102 11.501 5.44104V5.44202L11.502 5.44299C11.5027 5.44365 11.504 5.44425 11.5049 5.44495C11.5066 5.44654 11.5087 5.44885 11.5107 5.45081C11.515 5.45476 11.5207 5.45912 11.5264 5.46448C11.5378 5.47536 11.552 5.48978 11.5684 5.50647C11.6011 5.53996 11.6434 5.58602 11.6914 5.64319C11.7876 5.75771 11.9098 5.92171 12.0293 6.1344C12.2699 6.56305 12.4999 7.18851 12.5 7.99963C12.5 8.81076 12.2699 9.43615 12.0293 9.86487C11.9098 10.0776 11.7876 10.2415 11.6914 10.3561C11.6434 10.4132 11.6012 10.4593 11.5684 10.4928C11.552 10.5095 11.5378 10.5239 11.5264 10.5348C11.5207 10.5402 11.515 10.5445 11.5107 10.5485C11.5087 10.5504 11.5066 10.5527 11.5049 10.5543C11.5041 10.5551 11.5027 10.5557 11.502 10.5563L11.501 10.5573V10.5582C11.4984 10.5559 11.4649 10.5192 11 9.99963L11.5 10.5582C11.1913 10.8344 10.7176 10.8082 10.4414 10.4996C10.168 10.1938 10.1908 9.72603 10.4912 9.44885C10.492 9.44795 10.4936 9.44555 10.4961 9.44299C10.5044 9.43454 10.5212 9.41718 10.543 9.39124C10.5873 9.33844 10.653 9.25105 10.7207 9.13049C10.8549 8.89146 11 8.51677 11 7.99963C10.9999 7.48248 10.8549 7.10773 10.7207 6.86877C10.653 6.74819 10.5873 6.66076 10.543 6.60803C10.5211 6.58201 10.5043 6.56462 10.4961 6.55627L10.4932 6.55237L10.498 6.55725H10.499L10.4453 6.50452C10.1893 6.22372 10.1826 5.78895 10.4414 5.49963Z"
    fill="currentColor"
  />
</svg>

<svg xmlns="http://www.w3.org/2000/svg" width="16" height="16" fill="none" data-fui-icon="true" viewBox="0 0 16 16"><path fill="currentColor" d="M6.85 2.226C7.724 1.576 9 2.194 9 3.314v9.371c0 1.157-1.36 1.778-2.234 1.02l-2.194-1.9a1.25 1.25 0 0 0-.818-.305H2.75A1.75 1.75 0 0 1 1 9.75v-3.5c0-.967.784-1.75 1.75-1.75h1.004c.3 0 .591-.11.818-.306l2.194-1.9zM5.555 5.328A2.75 2.75 0 0 1 3.754 6H2.75a.25.25 0 0 0-.25.25v3.5c0 .138.112.25.25.25h1.004c.661 0 1.3.238 1.8.672L7.5 12.356V3.642zm4.886.172A.75.75 0 0 1 11.5 5.44l-.46.515c.45-.505.46-.515.461-.515v.001l.001.001.003.002.006.006.015.013a2 2 0 0 1 .165.18c.097.114.219.278.338.49.24.429.47 1.055.471 1.866 0 .81-.23 1.436-.47 1.865a3.2 3.2 0 0 1-.462.628l-.042.042-.015.014-.006.005-.003.002-.001.001v.001L11 10l.5.558a.75.75 0 0 1-1.009-1.11l.005-.005.047-.052c.044-.053.11-.14.178-.26C10.855 8.89 11 8.516 11 8c0-.518-.145-.892-.28-1.131a1.7 1.7 0 0 0-.224-.313l-.003-.004.005.005h.001l-.054-.052a.75.75 0 0 1-.004-1.005"/></svg>
